app/dist/common/images/bb-seguridade.svg

<svg height="18" width="18" xmlns="http://www.w3.org/2000/svg"><path d="m0 0h18v18h-18z" fill="#ffed00"/><g fill="#0058a6"><path d="m4 7.333 5.001-3.333 4.999 3.333-5.936 3.957-1.044-.694 4.793-3.192-2.916-1.944-1.355.902 1.041.694-2.5 1.666z"/><path d="m14 10.667-5.001 3.33-4.999-3.33 5.939-3.957 1.04.694-4.793 3.192 2.92 1.945 1.352-.904-1.041-.694 2.5-1.664zm0-5.277-1.041.695-1.042-.694 2.083-1.391zm-10 7.22 1.041-.695 1.042.694-2.083 1.391z"/></g></svg>

<!-- by TradingView --><svg width="18" height="18" xmlns="http://www.w3.org/2000/svg"><path fill="#FFED00" d="M0 0h18v18H0z"/><path d="M4 7.333L9.001 4 14 7.333 8.064 11.29l-1.044-.694 4.793-3.192L8.897 5.46l-1.355.902 1.041.694-2.5 1.666L4 7.333z" fill="#0058A6"/><path d="M14 10.667l-5.001 3.33L4 10.667 9.939 6.71l1.04.694-4.793 3.192 2.92 1.945 1.352-.904-1.041-.694 2.5-1.664L14 10.667zm0-5.277l-1.041.695-1.042-.694L14 4v1.39zM4 12.61l1.041-.695 1.042.694L4 14v-1.39z" fill="#0058A6"/></svg>
